images_breeze_svg/cmd/32/sortdescending.svg

<svg viewBox="0 0 32 32" xmlns="http://www.w3.org/2000/svg"><path d="m8.1757812 4 .048828.9003906h4.2578128l-4.482422 6.2910154v.808594h6l-.0332-.9375h-4.4414094l4.4003904-6.2011719v-.8613281zm12.8242188 10v12.085938l-3.792969-3.792969-.707031.707031 4 4 1 1 1-1 4-4-.707031-.707031-3.792969 3.792969v-12.085938z" fill="#4d4d4d"/><path d="m11.091797 14c-1.032887 0-1.9647119.191191-2.7929689.574219l.3300781.886719c.3556633-.169694.7597842-.300456 1.2128907-.392579.4531061-.09697.8768461-.144531 1.2714841-.144531.584653 0 1.011333.137702 1.279297.414063.272842.276367.408203.695387.408203 1.257812v.757813h-1.234375c-1.242389 0-2.1487128.195166-2.7187498.58789-.565165.387883-.8476562 1.000047-.8476562 1.833985 0 .698181.2138308 1.242034.6425781 1.634765.4336125.392725 1.0074168.589844 1.7187499.589844 1.062118 0 1.923329-.405147 2.585938-1.214844l.132812 1.0625h.919922v-5.076172c0-.979397-.253062-1.68567-.759766-2.117187-.501824-.436358-1.217865-.654297-2.148437-.654297zm.78125 4.152344h.927734v1.695312c-.57978.848489-1.368403 1.271485-2.367187 1.271485-.365407 0-.6704581-.11493-.9140628-.347657-.2436046-.232727-.3652343-.563565-.3652343-.990234 0-.237575.0225665-.435706.0664062-.595703.0438464-.164852.1233039-.315416.2402344-.451172.1169305-.140605.2777919-.248594.4824219-.326172.2046296-.082433.4665146-.145826.7832026-.189453.316682-.043627.69825-.066406 1.146485-.066406z" fill="#1d99f3"/></svg>

<?xml version="1.0" encoding="UTF-8" standalone="no"?>
<svg
   xmlns:dc="http://purl.org/dc/elements/1.1/"
   xmlns:cc="http://creativecommons.org/ns#"
   xmlns:rdf="http://www.w3.org/1999/02/22-rdf-syntax-ns#"
   xmlns:svg="http://www.w3.org/2000/svg"
   xmlns="http://www.w3.org/2000/svg"
   xmlns:sodipodi="http://sodipodi.sourceforge.net/DTD/sodipodi-0.dtd"
   xmlns:inkscape="http://www.inkscape.org/namespaces/inkscape"
   viewBox="0 0 32 32"
   version="1.1"
   id="svg6"
   sodipodi:docname="sortdescending.svg"
   inkscape:version="0.92.4 (unknown)"
   inkscape:export-filename="/home/rizmut/Dokumen/Rizmut/Github/tmp/breeze/cmd/32/sortdescending.png"
   inkscape:export-xdpi="96"
   inkscape:export-ydpi="96">
  <metadata
     id="metadata12">
    <rdf:RDF>
      <cc:Work
         rdf:about="">
        <dc:format>image/svg+xml</dc:format>
        <dc:type
           rdf:resource="http://purl.org/dc/dcmitype/StillImage" />
      </cc:Work>
    </rdf:RDF>
  </metadata>
  <defs
     id="defs10" />
  <sodipodi:namedview
     pagecolor="#ffffff"
     bordercolor="#666666"
     borderopacity="1"
     objecttolerance="10"
     gridtolerance="10"
     guidetolerance="10"
     inkscape:pageopacity="0"
     inkscape:pageshadow="2"
     inkscape:window-width="1360"
     inkscape:window-height="714"
     id="namedview8"
     showgrid="true"
     inkscape:zoom="20.85965"
     inkscape:cx="13.241545"
     inkscape:cy="18.861871"
     inkscape:window-x="0"
     inkscape:window-y="28"
     inkscape:window-maximized="1"
     inkscape:current-layer="svg6">
    <inkscape:grid
       type="xygrid"
       id="grid822" />
  </sodipodi:namedview>
  <path
     d="m 8.1757812,4 0.048828,0.9003906 H 12.482422 L 8,11.191406 V 12 h 6 l -0.0332,-0.9375 H 9.5253906 L 13.925781,4.8613281 V 4 Z M 21,14 V 26.085938 L 17.207031,22.292969 16.5,23 l 4,4 1,1 1,-1 4,-4 L 25.792969,22.292969 22,26.085938 V 14 Z"
     id="path2"
     inkscape:connector-curvature="0"
     style="fill:#4d4d4d"
     sodipodi:nodetypes="ccccccccccccccccccccccc" />
  <path
     d="m11.091797 14c-1.032887 0-1.9647119.191191-2.7929689.574219l.3300781.886719c.3556633-.169694.7597842-.300456 1.2128907-.392579.4531061-.09697.8768461-.144531 1.2714841-.144531.584653 0 1.011333.137702 1.279297.414063.272842.276367.408203.695387.408203 1.257812v.757813h-1.234375c-1.242389 0-2.1487128.195166-2.7187498.58789-.565165.387883-.8476562 1.000047-.8476562 1.833985 0 .698181.2138308 1.242034.6425781 1.634765.4336125.392725 1.0074168.589844 1.7187499.589844 1.062118 0 1.923329-.405147 2.585938-1.214844l.132812 1.0625h.919922v-5.076172c0-.979397-.253062-1.68567-.759766-2.117187-.501824-.436358-1.217865-.654297-2.148437-.654297zm.78125 4.152344h.927734v1.695312c-.57978.848489-1.368403 1.271485-2.367187 1.271485-.365407 0-.6704581-.11493-.9140628-.347657-.2436046-.232727-.3652343-.563565-.3652343-.990234 0-.237575.0225665-.435706.0664062-.595703.0438464-.164852.1233039-.315416.2402344-.451172.1169305-.140605.2777919-.248594.4824219-.326172.2046296-.082433.4665146-.145826.7832026-.189453.316682-.043627.69825-.066406 1.146485-.066406z"
     fill="#1d99f3"
     id="path4" />
</svg>
